X: 22817
T: Lansdowne Lass, The
R: reel
M: 4/4
K: Gmajor
|:B2 ge dBGA|B2 GB AGEG|DGGF GABd|egdB ABGA|
B2 ge dBGA|B2 GB AGEG|DGGF GABd|egdB G3A:|
|:BG~G2 gG~G2|gBeB dBGA|BGGB d3g|eaag a2 ga|
b2 ab agef|g2 eg dG (3Bcd|G2 EG Dege|dBAB G3A:|

